static/img/kroki/61df5be4000a0a07a11e399a8ee3ce8f.svg

<?xml version="1.0" encoding="us-ascii" standalone="no"?><svg xmlns="http://www.w3.org/2000/svg" xmlns:xlink="http://www.w3.org/1999/xlink" contentStyleType="text/css" height="451px" preserveAspectRatio="none" style="width:718px;height:451px;" version="1.1" viewBox="0 0 718 451" width="718px" zoomAndPan="magnify"><defs/><g><!--class digitalocean_droplet--><g id="elem_digitalocean_droplet"><rect codeLine="23" fill="#3D176E" height="39.7891" id="digitalocean_droplet" rx="2.5" ry="2.5" style="stroke:#000D19;stroke-width:0.5;" width="211" x="372" y="406.16"/><ellipse cx="387" cy="426.0545" fill="#ADD1B2" rx="11" ry="11" style="stroke:#181818;stroke-width:1.0;"/><path d="M389.9688,431.6952 Q389.3906,431.992 388.75,432.1327 Q388.1094,432.2889 387.4063,432.2889 Q384.9063,432.2889 383.5781,430.6483 Q382.2656,428.992 382.2656,425.867 Q382.2656,422.742 383.5781,421.0858 Q384.9063,419.4295 387.4063,419.4295 Q388.1094,419.4295 388.75,419.5858 Q389.4063,419.742 389.9688,420.0389 L389.9688,422.7577 Q389.3438,422.1795 388.75,421.9139 Q388.1563,421.6327 387.5313,421.6327 Q386.1875,421.6327 385.5,422.7108 Q384.8125,423.7733 384.8125,425.867 Q384.8125,427.9608 385.5,429.0389 Q386.1875,430.1014 387.5313,430.1014 Q388.1563,430.1014 388.75,429.8358 Q389.3438,429.5545 389.9688,428.9764 L389.9688,431.6952 Z " fill="#000000"/><text fill="#D9B8FF" font-family="Helvetica" font-size="17" lengthAdjust="spacing" textLength="169" x="406" y="431.9398">digitalocean_droplet</text></g><!--class digitalocean_kubernetes_cluster--><g id="elem_digitalocean_kubernetes_cluster"><rect codeLine="26" fill="#3D176E" height="39.7891" id="digitalocean_kubernetes_cluster" rx="2.5" ry="2.5" style="stroke:#000D19;stroke-width:0.5;" width="311" x="114" y="306.37"/><ellipse cx="129" cy="326.2645" fill="#ADD1B2" rx="11" ry="11" style="stroke:#181818;stroke-width:1.0;"/><path d="M131.9688,331.9052 Q131.3906,332.202 130.75,332.3427 Q130.1094,332.4989 129.4063,332.4989 Q126.9063,332.4989 125.5781,330.8583 Q124.2656,329.202 124.2656,326.077 Q124.2656,322.952 125.5781,321.2958 Q126.9063,319.6395 129.4063,319.6395 Q130.1094,319.6395 130.75,319.7958 Q131.4063,319.952 131.9688,320.2489 L131.9688,322.9677 Q131.3438,322.3895 130.75,322.1239 Q130.1563,321.8427 129.5313,321.8427 Q128.1875,321.8427 127.5,322.9208 Q126.8125,323.9833 126.8125,326.077 Q126.8125,328.1708 127.5,329.2489 Q128.1875,330.3114 129.5313,330.3114 Q130.1563,330.3114 130.75,330.0458 Q131.3438,329.7645 131.9688,329.1864 L131.9688,331.9052 Z " fill="#000000"/><text fill="#D9B8FF" font-family="Helvetica" font-size="17" lengthAdjust="spacing" textLength="269" x="148" y="332.1498">digitalocean_kubernetes_cluster</text></g><!--class digitalocean_project--><g id="elem_digitalocean_project"><rect codeLine="29" fill="#3D176E" height="39.7891" id="digitalocean_project" rx="2.5" ry="2.5" style="stroke:#000D19;stroke-width:0.5;" width="209" x="7" y="206.58"/><ellipse cx="22" cy="226.4745" fill="#ADD1B2" rx="11" ry="11" style="stroke:#181818;stroke-width:1.0;"/><path d="M24.9688,232.1152 Q24.3906,232.412 23.75,232.5527 Q23.1094,232.7089 22.4063,232.7089 Q19.9063,232.7089 18.5781,231.0683 Q17.2656,229.412 17.2656,226.287 Q17.2656,223.162 18.5781,221.5058 Q19.9063,219.8495 22.4063,219.8495 Q23.1094,219.8495 23.75,220.0058 Q24.4063,220.162 24.9688,220.4589 L24.9688,223.1777 Q24.3438,222.5995 23.75,222.3339 Q23.1563,222.0527 22.5313,222.0527 Q21.1875,222.0527 20.5,223.1308 Q19.8125,224.1933 19.8125,226.287 Q19.8125,228.3808 20.5,229.4589 Q21.1875,230.5214 22.5313,230.5214 Q23.1563,230.5214 23.75,230.2558 Q24.3438,229.9745 24.9688,229.3964 L24.9688,232.1152 Z " fill="#000000"/><text fill="#D9B8FF" font-family="Helvetica" font-size="17" lengthAdjust="spacing" textLength="167" x="41" y="232.3598">digitalocean_project</text></g><!--class digitalocean_region--><g id="elem_digitalocean_region"><rect codeLine="32" fill="#3D176E" height="39.7891" id="digitalocean_region" rx="2.5" ry="2.5" style="stroke:#000D19;stroke-width:0.5;" width="205" x="322" y="106.79"/><ellipse cx="337" cy="126.6845" fill="#ADD1B2" rx="11" ry="11" style="stroke:#181818;stroke-width:1.0;"/><path d="M339.9688,132.3252 Q339.3906,132.622 338.75,132.7627 Q338.1094,132.9189 337.4063,132.9189 Q334.9063,132.9189 333.5781,131.2783 Q332.2656,129.622 332.2656,126.497 Q332.2656,123.372 333.5781,121.7158 Q334.9063,120.0595 337.4063,120.0595 Q338.1094,120.0595 338.75,120.2158 Q339.4063,120.372 339.9688,120.6689 L339.9688,123.3877 Q339.3438,122.8095 338.75,122.5439 Q338.1563,122.2627 337.5313,122.2627 Q336.1875,122.2627 335.5,123.3408 Q334.8125,124.4033 334.8125,126.497 Q334.8125,128.5908 335.5,129.6689 Q336.1875,130.7314 337.5313,130.7314 Q338.1563,130.7314 338.75,130.4658 Q339.3438,130.1845 339.9688,129.6064 L339.9688,132.3252 Z " fill="#000000"/><text fill="#D9B8FF" font-family="Helvetica" font-size="17" lengthAdjust="spacing" textLength="163" x="356" y="132.5698">digitalocean_region</text></g><!--class digitalocean_team--><g id="elem_digitalocean_team"><rect codeLine="35" fill="#3D176E" height="39.7891" id="digitalocean_team" rx="2.5" ry="2.5" style="stroke:#000D19;stroke-width:0.5;" width="196" x="326.5" y="7"/><ellipse cx="341.5" cy="26.8945" fill="#ADD1B2" rx="11" ry="11" style="stroke:#181818;stroke-width:1.0;"/><path d="M344.4688,32.5352 Q343.8906,32.832 343.25,32.9727 Q342.6094,33.1289 341.9063,33.1289 Q339.4063,33.1289 338.0781,31.4883 Q336.7656,29.832 336.7656,26.707 Q336.7656,23.582 338.0781,21.9258 Q339.4063,20.2695 341.9063,20.2695 Q342.6094,20.2695 343.25,20.4258 Q343.9063,20.582 344.4688,20.8789 L344.4688,23.5977 Q343.8438,23.0195 343.25,22.7539 Q342.6563,22.4727 342.0313,22.4727 Q340.6875,22.4727 340,23.5508 Q339.3125,24.6133 339.3125,26.707 Q339.3125,28.8008 340,29.8789 Q340.6875,30.9414 342.0313,30.9414 Q342.6563,30.9414 343.25,30.6758 Q343.8438,30.3945 344.4688,29.8164 L344.4688,32.5352 Z " fill="#000000"/><text fill="#D9B8FF" font-family="Helvetica" font-size="17" lengthAdjust="spacing" textLength="154" x="360.5" y="32.7798">digitalocean_team</text></g><!--class digitalocean_vpc--><g id="elem_digitalocean_vpc"><rect codeLine="38" fill="#3D176E" height="39.7891" id="digitalocean_vpc" rx="2.5" ry="2.5" style="stroke:#000D19;stroke-width:0.5;" width="180" x="477.5" y="206.58"/><ellipse cx="492.5" cy="226.4745" fill="#ADD1B2" rx="11" ry="11" style="stroke:#181818;stroke-width:1.0;"/><path d="M495.4688,232.1152 Q494.8906,232.412 494.25,232.5527 Q493.6094,232.7089 492.9063,232.7089 Q490.4063,232.7089 489.0781,231.0683 Q487.7656,229.412 487.7656,226.287 Q487.7656,223.162 489.0781,221.5058 Q490.4063,219.8495 492.9063,219.8495 Q493.6094,219.8495 494.25,220.0058 Q494.9063,220.162 495.4688,220.4589 L495.4688,223.1777 Q494.8438,222.5995 494.25,222.3339 Q493.6563,222.0527 493.0313,222.0527 Q491.6875,222.0527 491,223.1308 Q490.3125,224.1933 490.3125,226.287 Q490.3125,228.3808 491,229.4589 Q491.6875,230.5214 493.0313,230.5214 Q493.6563,230.5214 494.25,230.2558 Q494.8438,229.9745 495.4688,229.3964 L495.4688,232.1152 Z " fill="#000000"/><text fill="#D9B8FF" font-family="Helvetica" font-size="17" lengthAdjust="spacing" textLength="138" x="511.5" y="232.3598">digitalocean_vpc</text></g><!--link digitalocean_kubernetes_cluster to digitalocean_droplet--><g id="link_digitalocean_kubernetes_cluster_digitalocean_droplet"><path codeLine="41" d="M310.59,346.59 C347.06,363.73 394.6206,386.0862 431.0606,403.2262 " fill="none" id="digitalocean_kubernetes_cluster-to-digitalocean_droplet" style="stroke:#1A83AF;stroke-width:2.0;"/><polygon fill="#1A83AF" points="436.49,405.78,430.0484,398.3297,431.9655,403.6519,426.6434,405.5689,436.49,405.78" style="stroke:#1A83AF;stroke-width:2.0;"/></g><!--link digitalocean_project to digitalocean_droplet--><g id="link_digitalocean_project_digitalocean_droplet"><path codeLine="42" d="M101.26,246.7 C89.17,272.35 73.42,317.81 96.5,346.16 C130.67,388.13 265.3858,407.9139 365.8358,417.2639 " fill="none" id="digitalocean_project-to-digitalocean_droplet" style="stroke:#1A83AF;stroke-width:2.0;"/><polygon fill="#1A83AF" points="371.81,417.82,363.2195,413.0031,366.8315,417.3566,362.478,420.9687,371.81,417.82" style="stroke:#1A83AF;stroke-width:2.0;"/></g><!--link digitalocean_project to digitalocean_kubernetes_cluster--><g id="link_digitalocean_project_digitalocean_kubernetes_cluster"><path codeLine="43" d="M142.72,246.8 C170.42,263.94 205.5688,285.6912 233.2488,302.8312 " fill="none" id="digitalocean_project-to-digitalocean_kubernetes_cluster" style="stroke:#1A83AF;stroke-width:2.0;"/><polygon fill="#1A83AF" points="238.35,305.99,232.804,297.8511,234.099,303.3577,228.5924,304.6527,238.35,305.99" style="stroke:#1A83AF;stroke-width:2.0;"/></g><!--link digitalocean_region to digitalocean_droplet--><g id="link_digitalocean_region_digitalocean_droplet"><path codeLine="44" d="M427.9,146.74 C437.45,200.32 463.4072,346.0131 473.0072,399.8731 " fill="none" id="digitalocean_region-to-digitalocean_droplet" style="stroke:#1A83AF;stroke-width:2.0;"/><polygon fill="#1A83AF" points="474.06,405.78,476.4187,396.2177,473.1826,400.8576,468.5428,397.6215,474.06,405.78" style="stroke:#1A83AF;stroke-width:2.0;"/></g><!--link digitalocean_region to digitalocean_kubernetes_cluster--><g id="link_digitalocean_region_digitalocean_kubernetes_cluster"><path codeLine="45" d="M409.36,146.99 C379.72,184.76 318.0936,263.3294 288.4136,301.1594 " fill="none" id="digitalocean_region-to-digitalocean_kubernetes_cluster" style="stroke:#1A83AF;stroke-width:2.0;"/><polygon fill="#1A83AF" points="284.71,305.88,293.4124,301.2682,287.7963,301.9462,287.1183,296.3301,284.71,305.88" style="stroke:#1A83AF;stroke-width:2.0;"/></g><!--link digitalocean_region to digitalocean_vpc--><g id="link_digitalocean_region_digitalocean_vpc"><path codeLine="46" d="M452.75,147.01 C477.82,164.15 509.2967,185.6841 534.3567,202.8141 " fill="none" id="digitalocean_region-to-digitalocean_vpc" style="stroke:#1A83AF;stroke-width:2.0;"/><polygon fill="#1A83AF" points="539.31,206.2,534.1373,197.8189,535.1822,203.3784,529.6227,204.4234,539.31,206.2" style="stroke:#1A83AF;stroke-width:2.0;"/></g><!--link digitalocean_team to digitalocean_droplet--><g id="link_digitalocean_team_digitalocean_droplet"><path codeLine="47" d="M481.1,47.21 C544.17,72.39 641.7,123.32 675.5,206.58 C711.65,295.63 593.6469,368.8873 525.2869,403.0573 " fill="none" id="digitalocean_team-to-digitalocean_droplet" style="stroke:#1A83AF;stroke-width:2.0;"/><polygon fill="#1A83AF" points="519.92,405.74,529.7588,405.2939,524.3924,403.5045,526.1819,398.1381,519.92,405.74" style="stroke:#1A83AF;stroke-width:2.0;"/></g><!--link digitalocean_team to digitalocean_kubernetes_cluster--><g id="link_digitalocean_team_digitalocean_kubernetes_cluster"><path codeLine="48" d="M377.5,47.25 C351.83,60.27 321.83,80 304.5,106.79 C263.41,170.34 264.41,259.4747 267.25,299.9447 " fill="none" id="digitalocean_team-to-digitalocean_kubernetes_cluster" style="stroke:#1A83AF;stroke-width:2.0;"/><polygon fill="#1A83AF" points="267.67,305.93,271.0302,296.6721,267.32,300.9423,263.0498,297.2321,267.67,305.93" style="stroke:#1A83AF;stroke-width:2.0;"/></g><!--link digitalocean_team to digitalocean_project--><g id="link_digitalocean_team_digitalocean_project"><path codeLine="49" d="M367.91,47.18 C330.98,61.03 282.56,81.66 243.5,106.79 C198.14,135.97 157.2271,176.3554 133.2771,201.7454 " fill="none" id="digitalocean_team-to-digitalocean_project" style="stroke:#1A83AF;stroke-width:2.0;"/><polygon fill="#1A83AF" points="129.16,206.11,138.2453,202.3078,132.5909,202.4728,132.4259,196.8184,129.16,206.11" style="stroke:#1A83AF;stroke-width:2.0;"/></g><!--link digitalocean_team to digitalocean_region--><g id="link_digitalocean_team_digitalocean_region"><path codeLine="50" d="M424.5,47.22 C424.5,64.36 424.5,83.28 424.5,100.41 " fill="none" id="digitalocean_team-to-digitalocean_region" style="stroke:#1A83AF;stroke-width:2.0;"/><polygon fill="#1A83AF" points="424.5,106.41,428.5,97.41,424.5,101.41,420.5,97.41,424.5,106.41" style="stroke:#1A83AF;stroke-width:2.0;"/></g><!--link digitalocean_team to digitalocean_vpc--><g id="link_digitalocean_team_digitalocean_vpc"><path codeLine="51" d="M470.58,47.16 C496.27,60.25 526.6,80.07 544.5,106.79 C564.83,137.13 568.1404,175.06 568.1804,200.09 " fill="none" id="digitalocean_team-to-digitalocean_vpc" style="stroke:#1A83AF;stroke-width:2.0;"/><polygon fill="#1A83AF" points="568.19,206.09,572.1756,197.0836,568.182,201.09,564.1756,197.0964,568.19,206.09" style="stroke:#1A83AF;stroke-width:2.0;"/></g><!--link digitalocean_vpc to digitalocean_droplet--><g id="link_digitalocean_vpc_digitalocean_droplet"><path codeLine="52" d="M558.71,246.78 C541.5,284.55 506.0469,362.3797 488.8169,400.2097 " fill="none" id="digitalocean_vpc-to-digitalocean_droplet" style="stroke:#1A83AF;stroke-width:2.0;"/><polygon fill="#1A83AF" points="486.33,405.67,493.7006,399.1375,488.4025,401.1197,486.4202,395.8216,486.33,405.67" style="stroke:#1A83AF;stroke-width:2.0;"/></g><!--link digitalocean_vpc to digitalocean_kubernetes_cluster--><g id="link_digitalocean_vpc_digitalocean_kubernetes_cluster"><path codeLine="53" d="M508.62,246.8 C456.47,263.91 386.4109,286.8992 334.2109,304.0292 " fill="none" id="digitalocean_vpc-to-digitalocean_kubernetes_cluster" style="stroke:#1A83AF;stroke-width:2.0;"/><polygon fill="#1A83AF" points="328.51,305.9,338.3085,306.8944,333.2607,304.341,335.8141,299.2932,328.51,305.9" style="stroke:#1A83AF;stroke-width:2.0;"/></g><!--SRC=[hP9HIyCm58NV-oi2Unwi3jts8jI1wCiGvvl8o9BRBhPDoitjnXJ_kwsTKfjsfUXhpdToppt9JabWa6PqP2caMq3hsLZfZ2DFMO1e3akJ66IZCEJXTDOKRuscNc35Ks1taEo1bE1DuccdHAp1MdPHaswuY2CqkPRLzOHSsq82JJLgcN1h0o9KsvoW5aOkjlCmR9BDIqTJwS-kmC4CIi0JCfbCfBze8hsZpkxzGwpL6p2_NjhA43WndH5VrDcK9L4BwIpwhNTcVE1IAXsnozhPOvK9DU2ly_MEItCewP0djZx64Y0OEcQmTBQ2nLo6irRulWlsH5aTaofIn1CZWEkDH9CbGEpTypxQz3WllhK60hiHILuEwKGpDAyWkgz2Y9JHdJ91iKMNkCz4fVM56p-F_60-3MvVnjUjctgjcV_TvaRpsieOEBVNzUUnHT6U-om3O_Pu-aBss4_b3_9KUm-oE4sKVt1W4USjBJry0W00]--></g></svg>

<svg xmlns="http://www.w3.org/2000/svg" width="718" height="451" viewBox="0 0 718 451"><rect width="211" height="39.789" x="372" y="406.16" fill="#3D176E" rx="2.5" ry="2.5" style="stroke:#000d19;stroke-width:.5"/><circle cx="387" cy="426.055" r="11" fill="#ADD1B2" style="stroke:#181818;stroke-width:1"/><path d="M389.969 431.695q-.578.297-1.219.438-.64.156-1.344.156-2.5 0-3.828-1.64-1.312-1.657-1.312-4.782t1.312-4.781q1.328-1.656 3.828-1.656.703 0 1.344.156.656.156 1.219.453v2.719q-.625-.578-1.219-.844-.594-.281-1.219-.281-1.344 0-2.031 1.078-.687 1.062-.687 3.156t.687 3.172q.688 1.062 2.031 1.062.625 0 1.219-.265.594-.281 1.219-.86z"/><text x="406" y="431.94" fill="#D9B8FF" font-family="Helvetica" font-size="17" textLength="169">digitalocean_droplet</text><rect width="311" height="39.789" x="114" y="306.37" fill="#3D176E" rx="2.5" ry="2.5" style="stroke:#000d19;stroke-width:.5"/><circle cx="129" cy="326.264" r="11" fill="#ADD1B2" style="stroke:#181818;stroke-width:1"/><path d="M131.969 331.905q-.578.297-1.219.438-.64.156-1.344.156-2.5 0-3.828-1.64-1.312-1.657-1.312-4.782t1.312-4.781q1.328-1.656 3.828-1.656.703 0 1.344.156.656.156 1.219.453v2.719q-.625-.579-1.219-.844-.594-.281-1.219-.281-1.344 0-2.031 1.078-.687 1.062-.687 3.156t.687 3.172q.688 1.062 2.031 1.062.625 0 1.219-.265.594-.281 1.219-.86z"/><text x="148" y="332.15" fill="#D9B8FF" font-family="Helvetica" font-size="17" textLength="269">digitalocean_kubernetes_cluster</text><rect width="209" height="39.789" x="7" y="206.58" fill="#3D176E" rx="2.5" ry="2.5" style="stroke:#000d19;stroke-width:.5"/><circle cx="22" cy="226.475" r="11" fill="#ADD1B2" style="stroke:#181818;stroke-width:1"/><path d="M24.969 232.115q-.578.297-1.219.438-.64.156-1.344.156-2.5 0-3.828-1.64-1.312-1.657-1.312-4.782t1.312-4.781q1.328-1.656 3.828-1.656.703 0 1.344.156.656.156 1.219.453v2.719q-.625-.578-1.219-.844-.594-.281-1.219-.281-1.343 0-2.031 1.078-.687 1.062-.687 3.156t.687 3.172q.688 1.062 2.031 1.062.625 0 1.219-.265.594-.281 1.219-.86z"/><text x="41" y="232.36" fill="#D9B8FF" font-family="Helvetica" font-size="17" textLength="167">digitalocean_project</text><rect width="205" height="39.789" x="322" y="106.79" fill="#3D176E" rx="2.5" ry="2.5" style="stroke:#000d19;stroke-width:.5"/><circle cx="337" cy="126.684" r="11" fill="#ADD1B2" style="stroke:#181818;stroke-width:1"/><path d="M339.969 132.325q-.578.297-1.219.438-.64.156-1.344.156-2.5 0-3.828-1.64-1.312-1.657-1.312-4.782t1.312-4.781q1.328-1.656 3.828-1.656.703 0 1.344.156.656.156 1.219.453v2.719q-.625-.579-1.219-.844-.594-.281-1.219-.281-1.344 0-2.031 1.078-.687 1.062-.687 3.156t.687 3.172q.688 1.062 2.031 1.062.625 0 1.219-.265.594-.281 1.219-.86z"/><text x="356" y="132.57" fill="#D9B8FF" font-family="Helvetica" font-size="17" textLength="163">digitalocean_region</text><rect width="196" height="39.789" x="326.5" y="7" fill="#3D176E" rx="2.5" ry="2.5" style="stroke:#000d19;stroke-width:.5"/><circle cx="341.5" cy="26.895" r="11" fill="#ADD1B2" style="stroke:#181818;stroke-width:1"/><path d="M344.469 32.535q-.578.297-1.219.438-.64.156-1.344.156-2.5 0-3.828-1.64-1.312-1.657-1.312-4.782t1.312-4.781q1.328-1.656 3.828-1.656.703 0 1.344.156.656.156 1.219.453v2.719q-.625-.578-1.219-.844-.594-.281-1.219-.281-1.344 0-2.031 1.078-.687 1.062-.687 3.156t.687 3.172q.688 1.062 2.031 1.062.625 0 1.219-.265.594-.281 1.219-.86z"/><text x="360.5" y="32.78" fill="#D9B8FF" font-family="Helvetica" font-size="17" textLength="154">digitalocean_team</text><rect width="180" height="39.789" x="477.5" y="206.58" fill="#3D176E" rx="2.5" ry="2.5" style="stroke:#000d19;stroke-width:.5"/><circle cx="492.5" cy="226.475" r="11" fill="#ADD1B2" style="stroke:#181818;stroke-width:1"/><path d="M495.469 232.115q-.578.297-1.219.438-.64.156-1.344.156-2.5 0-3.828-1.64-1.312-1.657-1.312-4.782t1.312-4.781q1.328-1.656 3.828-1.656.703 0 1.344.156.656.156 1.219.453v2.719q-.625-.578-1.219-.844-.594-.281-1.219-.281-1.344 0-2.031 1.078-.687 1.062-.687 3.156t.687 3.172q.688 1.062 2.031 1.062.625 0 1.219-.265.594-.281 1.219-.86z"/><text x="511.5" y="232.36" fill="#D9B8FF" font-family="Helvetica" font-size="17" textLength="138">digitalocean_vpc</text><path fill="none" d="M310.59 346.59c36.47 17.14 84.03 39.496 120.47 56.636" style="stroke:#1a83af;stroke-width:2"/><path fill="#1A83AF" d="m436.49 405.78-6.442-7.45 1.918 5.322-5.323 1.917z" style="stroke:#1a83af;stroke-width:2"/><path fill="none" d="M101.26 246.7c-12.09 25.65-27.84 71.11-4.76 99.46 34.17 41.97 168.886 61.754 269.336 71.104" style="stroke:#1a83af;stroke-width:2"/><path fill="#1A83AF" d="m371.81 417.82-8.59-4.817 3.611 4.354-4.353 3.612z" style="stroke:#1a83af;stroke-width:2"/><path fill="none" d="M142.72 246.8c27.7 17.14 62.849 38.891 90.529 56.031" style="stroke:#1a83af;stroke-width:2"/><path fill="#1A83AF" d="m238.35 305.99-5.546-8.139 1.295 5.507-5.507 1.295z" style="stroke:#1a83af;stroke-width:2"/><path fill="none" d="M427.9 146.74c9.55 53.58 35.507 199.273 45.107 253.133" style="stroke:#1a83af;stroke-width:2"/><path fill="#1A83AF" d="m474.06 405.78 2.359-9.562-3.236 4.64-4.64-3.236z" style="stroke:#1a83af;stroke-width:2"/><path fill="none" d="M409.36 146.99c-29.64 37.77-91.266 116.34-120.946 154.17" style="stroke:#1a83af;stroke-width:2"/><path fill="#1A83AF" d="m284.71 305.88 8.702-4.612-5.616.678-.678-5.616z" style="stroke:#1a83af;stroke-width:2"/><path fill="none" d="M452.75 147.01c25.07 17.14 56.547 38.674 81.607 55.804" style="stroke:#1a83af;stroke-width:2"/><path fill="#1A83AF" d="m539.31 206.2-5.173-8.381 1.045 5.56-5.56 1.044z" style="stroke:#1a83af;stroke-width:2"/><path fill="none" d="M481.1 47.21c63.07 25.18 160.6 76.11 194.4 159.37 36.15 89.05-81.853 162.307-150.213 196.477" style="stroke:#1a83af;stroke-width:2"/><path fill="#1A83AF" d="m519.92 405.74 9.839-.446-5.367-1.79 1.79-5.366z" style="stroke:#1a83af;stroke-width:2"/><path fill="none" d="M377.5 47.25c-25.67 13.02-55.67 32.75-73 59.54-41.09 63.55-40.09 152.685-37.25 193.155" style="stroke:#1a83af;stroke-width:2"/><path fill="#1A83AF" d="m267.67 305.93 3.36-9.258-3.71 4.27-4.27-3.71z" style="stroke:#1a83af;stroke-width:2"/><path fill="none" d="M367.91 47.18c-36.93 13.85-85.35 34.48-124.41 59.61-45.36 29.18-86.273 69.565-110.223 94.955" style="stroke:#1a83af;stroke-width:2"/><path fill="#1A83AF" d="m129.16 206.11 9.085-3.802-5.654.165-.165-5.655z" style="stroke:#1a83af;stroke-width:2"/><path fill="none" d="M424.5 47.22v53.19" style="stroke:#1a83af;stroke-width:2"/><path fill="#1A83AF" d="m424.5 106.41 4-9-4 4-4-4z" style="stroke:#1a83af;stroke-width:2"/><path fill="none" d="M470.58 47.16c25.69 13.09 56.02 32.91 73.92 59.63 20.33 30.34 23.64 68.27 23.68 93.3" style="stroke:#1a83af;stroke-width:2"/><path fill="#1A83AF" d="m568.19 206.09 3.986-9.006-3.994 4.006-4.006-3.994z" style="stroke:#1a83af;stroke-width:2"/><path fill="none" d="M558.71 246.78c-17.21 37.77-52.663 115.6-69.893 153.43" style="stroke:#1a83af;stroke-width:2"/><path fill="#1A83AF" d="m486.33 405.67 7.37-6.533-5.298 1.983-1.982-5.298z" style="stroke:#1a83af;stroke-width:2"/><path fill="none" d="M508.62 246.8c-52.15 17.11-122.21 40.1-174.41 57.23" style="stroke:#1a83af;stroke-width:2"/><path fill="#1A83AF" d="m328.51 305.9 9.798.994-5.047-2.553 2.553-5.048z" style="stroke:#1a83af;stroke-width:2"/></svg>
